outputs/icons/enterprise/eas_round.svg

<svg xmlns="http://www.w3.org/2000/svg" width="1200" height="1200" fill="none"><path fill="#000" d="M275 209.571c30.858-23.391 75-1.184 75 37.744a47.3 47.3 0 0 1-4.883 20.995c-3.212 6.519-7.862 12.213-13.623 16.602-42.746 32.216-77.459 74.026-101.367 122.119A348.34 348.34 0 0 0 193.75 562.01v125.98a348.2 348.2 0 0 0 36.377 154.93c23.909 48.105 58.613 89.95 101.367 122.17 5.76 4.39 10.412 10.08 13.623 16.6a47.3 47.3 0 0 1 4.883 20.995c-.005 38.92-44.143 61.15-75 37.745-54.325-41.02-98.436-94.245-128.808-155.42-30.367-61.17-46.19-128.625-46.192-197.02V562.01c.002-68.405 15.82-135.892 46.192-197.069 30.371-61.168 74.49-114.357 128.808-155.37M849.95 247.315c0-38.928 44.145-61.133 75-37.744 54.32 41.013 98.44 94.202 128.81 155.37 30.37 61.177 46.19 128.664 46.19 197.069v125.98a443.2 443.2 0 0 1-46.19 197.02c-30.37 61.175-74.485 114.4-128.81 155.42-30.855 23.4-74.995 1.175-75-37.745a47.4 47.4 0 0 1 4.885-20.995c3.21-6.52 7.865-12.21 13.62-16.6 42.755-32.22 77.46-74.065 101.37-122.17a348.2 348.2 0 0 0 36.375-154.93V562.01c0-53.8-12.465-106.876-36.375-154.979-23.91-48.093-58.62-89.903-101.37-122.119-5.76-4.389-10.41-10.083-13.62-16.602a47.3 47.3 0 0 1-4.885-20.995"/><path fill="#000" d="M331.543 369.19c28.888-31.265 80.908-10.286 80.908 32.422-.027 11.955-4.513 23.475-12.598 32.226-32.094 34.847-49.937 80.632-49.902 128.172v125.98c-.06 47.585 17.782 93.435 49.902 128.32 8.081 8.735 12.57 20.235 12.598 32.175 0 42.71-52.021 63.72-80.908 32.425-48.463-52.35-75.413-121.28-75.342-192.875V562.06c-.064-71.587 26.886-140.523 75.342-192.87M787.45 401.563c0-42.711 52.045-63.698 80.91-32.422 48.47 52.342 75.41 121.277 75.34 192.869v125.98c.04 71.55-26.895 140.46-75.34 192.77-28.87 31.275-80.9 10.28-80.91-32.42.025-11.955 4.515-23.48 12.6-32.225 32.09-34.855 49.93-80.63 49.9-128.175V561.965c.035-47.55-17.805-93.377-49.9-128.225-8.07-8.745-12.57-20.236-12.6-32.177"/><path fill="#000" fill-rule="evenodd" d="M662.5 436.035c33.15 0 64.985 13.291 88.43 36.914 23.43 23.621 36.57 55.661 36.57 89.061v125.98c0 33.4-13.14 65.44-36.57 89.06-23.445 23.625-55.28 36.915-88.43 36.915h-125c-33.145-.005-64.942-13.295-88.379-36.915-23.436-23.62-36.619-55.66-36.621-89.06V562.01c0-33.4 13.185-65.439 36.621-89.061 23.437-23.618 55.234-36.908 88.379-36.914zm-125 94.485c-8.28.005-16.215 3.325-22.07 9.225a31.64 31.64 0 0 0-9.18 22.265v125.98c0 8.35 3.32 16.36 9.18 22.265 5.855 5.895 13.79 9.22 22.07 9.225h125a31.2 31.2 0 0 0 22.12-9.225c5.86-5.905 9.13-13.915 9.13-22.265V562.01c0-8.35-3.27-16.36-9.13-22.265a31.18 31.18 0 0 0-22.12-9.225z"/></svg>

<svg width="1200" height="1200" viewBox="0 0 1200 1200" fill="none" xmlns="http://www.w3.org/2000/svg"><path d="M275 209.571C305.858 186.18 350 208.387 350 247.315C350.015 254.597 348.33 261.787 345.117 268.31C341.905 274.829 337.255 280.523 331.494 284.912C288.748 317.128 254.035 358.938 230.127 407.031C206.218 455.134 193.753 508.21 193.75 562.01V687.99C193.753 741.78 206.222 794.82 230.127 842.92C254.036 891.025 288.74 932.87 331.494 965.09C337.254 969.48 341.906 975.17 345.117 981.69C348.331 988.215 350.014 995.4 350 1002.685C349.995 1041.605 305.857 1063.835 275 1040.43C220.675 999.41 176.564 946.185 146.192 885.01C115.825 823.84 100.002 756.385 100 687.99V562.01C100.002 493.605 115.82 426.118 146.192 364.941C176.563 303.773 220.682 250.584 275 209.571Z" fill="black"/><path d="M849.95 247.315C849.95 208.387 894.095 186.182 924.95 209.571C979.27 250.584 1023.39 303.773 1053.76 364.941C1084.13 426.118 1099.95 493.605 1099.95 562.01V687.99C1099.95 756.385 1084.125 823.84 1053.76 885.01C1023.39 946.185 979.275 999.41 924.95 1040.43C894.095 1063.83 849.955 1041.605 849.95 1002.685C849.94 995.4 851.62 988.215 854.835 981.69C858.045 975.17 862.7 969.48 868.455 965.09C911.21 932.87 945.915 891.025 969.825 842.92C993.73 794.82 1006.2 741.78 1006.2 687.99V562.01C1006.2 508.21 993.735 455.134 969.825 407.031C945.915 358.938 911.205 317.128 868.455 284.912C862.695 280.523 858.045 274.829 854.835 268.31C851.62 261.787 849.935 254.597 849.95 247.315Z" fill="black"/><path d="M331.543 369.19C360.431 337.925 412.451 358.904 412.451 401.612C412.424 413.567 407.938 425.087 399.853 433.838C367.759 468.685 349.916 514.47 349.951 562.01V687.99C349.891 735.575 367.733 781.425 399.853 816.31C407.934 825.045 412.423 836.545 412.451 848.485C412.451 891.195 360.43 912.205 331.543 880.91C283.08 828.56 256.13 759.63 256.201 688.035V562.06C256.137 490.473 283.087 421.537 331.543 369.19Z" fill="black"/><path d="M787.45 401.563C787.45 358.852 839.495 337.865 868.36 369.141C916.83 421.483 943.77 490.418 943.7 562.01V687.99C943.74 759.54 916.805 828.45 868.36 880.76C839.49 912.035 787.46 891.04 787.45 848.34C787.475 836.385 791.965 824.86 800.05 816.115C832.14 781.26 849.98 735.485 849.95 687.94V561.965C849.985 514.415 832.145 468.588 800.05 433.74C791.98 424.995 787.48 413.504 787.45 401.563Z" fill="black"/><path fill-rule="evenodd" d="M662.5 436.035C695.65 436.035 727.485 449.326 750.93 472.949C774.36 496.57 787.5 528.61 787.5 562.01V687.99C787.5 721.39 774.36 753.43 750.93 777.05C727.485 800.675 695.65 813.965 662.5 813.965H537.5C504.355 813.96 472.558 800.67 449.121 777.05C425.685 753.43 412.502 721.39 412.5 687.99V562.01C412.5 528.61 425.685 496.571 449.121 472.949C472.558 449.331 504.355 436.041 537.5 436.035H662.5ZM537.5 530.52C529.22 530.525 521.285 533.845 515.43 539.745C509.57 545.65 506.25 553.66 506.25 562.01V687.99C506.25 696.34 509.57 704.35 515.43 710.255C521.285 716.15 529.22 719.475 537.5 719.48H662.5C670.785 719.48 678.76 716.16 684.62 710.255C690.48 704.35 693.75 696.34 693.75 687.99V562.01C693.75 553.66 690.48 545.65 684.62 539.745C678.76 533.84 670.79 530.52 662.5 530.52H537.5Z" fill="black"/></svg>
